X: 20554
T: John Murphy's
R: slide
M: 12/8
K: Gmajor
|:B2 c|d2 g B2 c d3 efg|a2 g fed e2 d B2 c|
d2 g B2 c d3 efg|a2 g fef g3:|
|:bbb|b2 d e2 d efg aaa|aag fed e2 d bbb|
b2 d e2 d efg aaa|a2 g fef g3:|

